dist/img/svg/instagram.svg

<svg width="21" height="21" viewBox="0 0 21 21" fill="none" xmlns="http://www.w3.org/2000/svg">
<g clip-path="url(#clip0)">
<path d="M14.1348 0.5H6.63477C3.18352 0.5 0.384766 3.29875 0.384766 6.75V14.25C0.384766 17.7013 3.18352 20.5 6.63477 20.5H14.1348C17.586 20.5 20.3848 17.7013 20.3848 14.25V6.75C20.3848 3.29875 17.586 0.5 14.1348 0.5ZM18.5098 14.25C18.5098 16.6625 16.5473 18.625 14.1348 18.625H6.63477C4.22227 18.625 2.25977 16.6625 2.25977 14.25V6.75C2.25977 4.3375 4.22227 2.375 6.63477 2.375H14.1348C16.5473 2.375 18.5098 4.3375 18.5098 6.75V14.25Z" fill="#0071CE"/>
<path d="M10.3848 5.5C7.62352 5.5 5.38477 7.73875 5.38477 10.5C5.38477 13.2613 7.62352 15.5 10.3848 15.5C13.146 15.5 15.3848 13.2613 15.3848 10.5C15.3848 7.73875 13.146 5.5 10.3848 5.5ZM10.3848 13.625C8.66227 13.625 7.25977 12.2225 7.25977 10.5C7.25977 8.77625 8.66227 7.375 10.3848 7.375C12.1073 7.375 13.5098 8.77625 13.5098 10.5C13.5098 12.2225 12.1073 13.625 10.3848 13.625Z" fill="#0071CE"/>
<path d="M15.7595 5.791C16.1275 5.791 16.4258 5.49271 16.4258 5.12475C16.4258 4.75679 16.1275 4.4585 15.7595 4.4585C15.3916 4.4585 15.0933 4.75679 15.0933 5.12475C15.0933 5.49271 15.3916 5.791 15.7595 5.791Z" fill="#0071CE"/>
</g>
<defs>
<clipPath id="clip0">
<rect width="20" height="20" fill="white" transform="translate(0.384766 0.5)"/>
</clipPath>
</defs>
</svg>

<svg width="21" height="21" fill="none" xmlns="http://www.w3.org/2000/svg"><g clip-path="url(#clip0)" fill="#0071CE"><path d="M14.135.5h-7.5a6.25 6.25 0 00-6.25 6.25v7.5a6.25 6.25 0 006.25 6.25h7.5a6.25 6.25 0 006.25-6.25v-7.5A6.25 6.25 0 0014.135.5zm4.375 13.75a4.38 4.38 0 01-4.375 4.375h-7.5A4.38 4.38 0 012.26 14.25v-7.5a4.38 4.38 0 014.375-4.375h7.5A4.38 4.38 0 0118.51 6.75v7.5z"/><path d="M10.385 5.5a5 5 0 100 10 5 5 0 000-10zm0 8.125A3.13 3.13 0 017.26 10.5a3.129 3.129 0 013.125-3.125A3.129 3.129 0 0113.51 10.5a3.13 3.13 0 01-3.125 3.125zm5.375-7.834a.666.666 0 100-1.333.666.666 0 000 1.333z"/></g><defs><clipPath id="clip0"><path fill="#fff" transform="translate(.385 .5)" d="M0 0h20v20H0z"/></clipPath></defs></svg>
